X:1
T:Title
%%score { 1 | 2 }
L:1/8
M:4/4
K:C
V:1 treble nm="Grand Piano"
V:2 bass 
V:1
 z4 z2[Q:1/4=116] C2 | E2 G2 [Ec]2 [FA]2 | [EG]4 [EG]2 E2 | F2 G2 A2 [FB]2 | [Ec]6 [Gc]2 | %5
 d2 d2 e2 d2 | [Ec]4 [EG]2 [EA]2 | [EB]2 [EG]2 [_E^F]3 [EG] | E6 E2 | F2 G2 A2 [FB]2 | %10
 [Ec]4 [Ec]2 [EG]2 | [FA]2 [GB]2 [Ac]2 [Ad]2 | [^Ge]6 [Ge]2 | [Ad]2 [Ac]2 [GB]2 [FA]2 | %14
 [EG]4 [Gc]2 [GB]2 | A2 d2 c2 [DB]2 |[M:3/4] [Ec]6 |[M:1/4] G2 |[M:4/4] [CGc]4 d4 | e6 [EG]2 | %20
 [FA]2 [FB]2 [Gc]2 d2 | B6 G2 | [CEc]2 [CAc]2 [CGc]2 [B,FG]2 | [CEc]2 [CAc]2 [CGc]2 [Ff]2 | %24
 [Ge]4 [Fd]4 |[M:3/4] [Ec]6 |] %26
V:2
 z4 z2 C,2 | E,2 G,2 [C,G,]2 [C,C]2 | [C,C]4 [C,C]2 [C,G,C]2 | [D,G,B,]2 [E,G,C]2 [F,C]2 [D,G,]2 | %4
 [C,G,]6 [E,C]2 | [G,B,G]2 [G,B,G]2 [G,CG]2 [G,B,F]2 | [C,C]4 [C,C]2 [C,^F,]2 | %7
 [B,,G,]2 [B,,B,]2 [B,,A,]3 [B,,B,] | [E,G,]6 [E,G,B,]2 | [D,G,B,]2 [E,G,C]2 [F,C]2 [D,G,]2 | %10
 [C,G,]4 [C,G,]2 [C,C]2 | [F,C]2 [F,C]2 [F,C]2 [F,A,]2 | [E,B,]6 [E,B,]2 | %13
 [F,A,]2 [F,A,]2 [F,B,]2 [F,C]2 | [E,C]4 [E,C]2 [E,C]2 | [F,CF]2 [F,A,F]2 [G,E]2 [G,,G,]2 | %16
[M:3/4] [C,G,]6 |[M:1/4] G,2 |[M:4/4] E,4[K:treble] [G,B,G]4 | [CG]6[K:bass] [C,C]2 | %20
 [F,C]2 [D,D]2 [E,C]2 [F,A,F]2 | [G,D]6 G,2 | C,2 F,2 E,2 D,2 | C,2 F,2 E,2 [D,D]2 | %24
 [G,C]4 [G,B,]4 |[M:3/4] [C,C]6 |] %26

